icon-themes/breeze_svg/cmd/32/window3d.svg

<svg viewBox="0 0 32 32" xmlns="http://www.w3.org/2000/svg"><path d="m8.6464844 4-4.6464844 4.6464844v.3535156 1 17 1h19l4.292969-4.292969.707031-.707031v-1-18h-1-17-.6464844-.3535156zm1.3535156 1h16.292969l-4 4h-.292969-12zm-1 .0605469v3.9394531h-3.9394531zm18 .6464843v16.2929688h-4v-12.2929688zm-22 4.2929688h4v12 .292969l-4 4zm5 0h12v12h-12zm-.2929688 13h12.2929688v4h-16.2929688zm13.2929688 0h3.585938l-3.585938 3.585938z" fill="#4d4d4d"/></svg>

<svg xmlns="http://www.w3.org/2000/svg" viewBox="0 0 32 32">
 <path 
     style="fill:#4d4d4d" 
     d="M 8.6464844 4 L 4 8.6464844 L 4 9 L 4 10 L 4 27 L 4 28 L 23 28 L 27.292969 23.707031 L 28 23 L 28 22 L 28 4 L 27 4 L 10 4 L 9.3535156 4 L 9 4 L 8.6464844 4 z M 10 5 L 26.292969 5 L 22.292969 9 L 22 9 L 10 9 L 10 5 z M 9 5.0605469 L 9 9 L 5.0605469 9 L 9 5.0605469 z M 27 5.7070312 L 27 22 L 23 22 L 23 9.7070312 L 27 5.7070312 z M 5 10 L 9 10 L 9 22 L 9 22.292969 L 5 26.292969 L 5 10 z M 10 10 L 22 10 L 22 22 L 10 22 L 10 10 z M 9.7070312 23 L 22 23 L 22 27 L 5.7070312 27 L 9.7070312 23 z M 23 23 L 26.585938 23 L 23 26.585938 L 23 23 z "
     />
</svg>
